packages/picasso/src/Icon/svg/preview16.svg

<svg fill="none" xmlns="http://www.w3.org/2000/svg" viewBox="0 0 16 16">
  <path fill-rule="evenodd" clip-rule="evenodd" d="M.100098 0H3.1001v1h-2v2H.100098V0ZM12.1001 0h3v3h-1V1h-2V0Zm-11 12H.100098v3H3.1001v-1h-2v-2Zm13 2v-2h1v3h-3v-1h2ZM1.17591 7.5c.05569.09045.12969.2046.22276.33599.24829.35053.62989.82039 1.15854 1.29031C3.61032 10.0624 5.24643 11 7.60003 11c2.35361 0 3.98967-.9376 5.04287-1.8737.5286-.46992.9102-.93978 1.1585-1.29031.0931-.13139.1671-.24554.2228-.33599-.0557-.09045-.1297-.2046-.2228-.33599-.2483-.35053-.6299-.82039-1.1585-1.29031C11.5897 4.93761 9.95364 4 7.60003 4c-2.3536 0-3.98971.93761-5.04282 1.8737-.52865.46992-.91025.93978-1.15854 1.29031-.09307.13139-.16707.24554-.22276.33599ZM14.6 7.5c.4472-.22361.4471-.22384.447-.22409L14.6 7.5Zm.447-.22409-.001-.002-.002-.00394-.0063-.01218c-.0052-.00999-.0124-.02369-.0217-.04085-.0186-.03433-.0455-.08254-.0809-.14266-.0708-.12018-.176-.28828-.3177-.48829-.2829-.39947-.7138-.92961-1.3102-1.45969C12.1103 4.06239 10.2464 3 7.60003 3 4.95364 3 3.08975 4.06239 1.89285 5.1263 1.29651 5.65638.865605 6.18652.582645 6.58599c-.141672.20001-.24686.36811-.317678.48829-.035427.06012-.062306.10833-.080899.14266-.009298.01716-.016529.03086-.021725.04085l-.006274.01218-.002001.00394-.000718.00143c-.000125.00024-.000531.00105.446683.22466l-.447214-.22361L.0410156 7.5l.1118004.2236c-.000044-.00013.000883-.00059.055944-.02808.055946-.02793.167781-.08377.391273-.19552l-.447214.22361.000531.00106.000718.00142.002001.00394.006274.01218c.005196.00999.012427.02369.021725.04085.018593.03433.045472.08254.080899.14266.070818.12018.176006.28828.317678.48829.28296.39947.713865.92961 1.310205 1.45969C3.08975 10.9376 4.95364 12 7.60003 12c2.64637 0 4.51027-1.0624 5.70717-2.1263.5964-.53008 1.0273-1.06022 1.3102-1.45969.1417-.20001.2469-.36811.3177-.48829.0354-.06012.0623-.10833.0809-.14266.0093-.01716.0165-.03086.0217-.04085l.0063-.01218.002-.00394.0007-.00142c.0001-.00025.0005-.00106-.4467-.22467l.4472.22361L15.159 7.5l-.112-.22409ZM7.6001 6c-.82843 0-1.5.67157-1.5 1.5s.67157 1.5 1.5 1.5c.82842 0 1.5-.67157 1.5-1.5S8.42852 6 7.6001 6Zm-2.5 1.5c0-1.38071 1.11929-2.5 2.5-2.5s2.5 1.11929 2.5 2.5-1.11929 2.5-2.5 2.5-2.5-1.11929-2.5-2.5Z" fill="#455065"/>
</svg>

<svg width="16" height="16" viewBox="0 0 16 16" fill="none" xmlns="http://www.w3.org/2000/svg">
<g id="Size=16">
<g id="Group">
<path id="Vector (Stroke)" fill-rule="evenodd" clip-rule="evenodd" d="M0.100098 0H3.1001V1H1.1001V3H0.100098V0Z" fill="#455065"/>
<path id="Vector (Stroke)_2" fill-rule="evenodd" clip-rule="evenodd" d="M12.1001 0H15.1001V3H14.1001V1H12.1001V0Z" fill="#455065"/>
<path id="Vector (Stroke)_3" fill-rule="evenodd" clip-rule="evenodd" d="M0.100098 12H1.1001V14H3.1001V15H0.100098V12Z" fill="#455065"/>
<path id="Vector (Stroke)_4" fill-rule="evenodd" clip-rule="evenodd" d="M14.1001 14V12H15.1001V15H12.1001V14H14.1001Z" fill="#455065"/>
<path id="Vector (Stroke)_5" fill-rule="evenodd" clip-rule="evenodd" d="M1.17591 7.5C1.2316 7.59045 1.3056 7.7046 1.39867 7.83599C1.64696 8.18652 2.02856 8.65638 2.55721 9.1263C3.61032 10.0624 5.24643 11 7.60003 11C9.95364 11 11.5897 10.0624 12.6429 9.1263C13.1715 8.65638 13.5531 8.18652 13.8014 7.83599C13.8945 7.7046 13.9685 7.59045 14.0242 7.5C13.9685 7.40955 13.8945 7.2954 13.8014 7.16401C13.5531 6.81348 13.1715 6.34362 12.6429 5.8737C11.5897 4.93761 9.95364 4 7.60003 4C5.24643 4 3.61032 4.93761 2.55721 5.8737C2.02856 6.34362 1.64696 6.81348 1.39867 7.16401C1.3056 7.2954 1.2316 7.40955 1.17591 7.5ZM14.6 7.5C15.0472 7.27639 15.0471 7.27616 15.047 7.27591L15.046 7.27391L15.044 7.26997L15.0377 7.25779C15.0325 7.2478 15.0253 7.2341 15.016 7.21694C14.9974 7.18261 14.9705 7.1344 14.9351 7.07428C14.8643 6.9541 14.7591 6.786 14.6174 6.58599C14.3345 6.18652 13.9036 5.65638 13.3072 5.1263C12.1103 4.06239 10.2464 3 7.60003 3C4.95364 3 3.08975 4.06239 1.89285 5.1263C1.29651 5.65638 0.865605 6.18652 0.582645 6.58599C0.440973 6.786 0.335785 6.9541 0.264967 7.07428C0.22954 7.1344 0.202661 7.18261 0.184068 7.21694C0.17477 7.2341 0.167539 7.2478 0.162343 7.25779L0.156069 7.26997L0.154068 7.27391L0.15335 7.27534C0.153225 7.27558 0.152819 7.27639 0.600033 7.5L0.152819 7.27639L0.0410156 7.5L0.152819 7.72361L0.600033 7.5C0.152819 7.72361 0.152694 7.72336 0.152819 7.72361L0.15335 7.72467L0.154068 7.72609L0.156069 7.73003L0.162343 7.74221C0.167539 7.7522 0.17477 7.7659 0.184068 7.78306C0.202661 7.81739 0.22954 7.8656 0.264967 7.92572C0.335785 8.0459 0.440973 8.214 0.582645 8.41401C0.865605 8.81348 1.29651 9.34362 1.89285 9.8737C3.08975 10.9376 4.95364 12 7.60003 12C10.2464 12 12.1103 10.9376 13.3072 9.8737C13.9036 9.34362 14.3345 8.81348 14.6174 8.41401C14.7591 8.214 14.8643 8.0459 14.9351 7.92572C14.9705 7.8656 14.9974 7.81739 15.016 7.78306C15.0253 7.7659 15.0325 7.7522 15.0377 7.74221L15.044 7.73003L15.046 7.72609L15.0467 7.72467C15.0468 7.72442 15.0472 7.72361 14.6 7.5ZM14.6 7.5L15.0472 7.72361L15.159 7.5L15.047 7.27591L14.6 7.5Z" fill="#455065"/>
<path id="Vector (Stroke)_6" fill-rule="evenodd" clip-rule="evenodd" d="M7.6001 6C6.77167 6 6.1001 6.67157 6.1001 7.5C6.1001 8.32843 6.77167 9 7.6001 9C8.42852 9 9.1001 8.32843 9.1001 7.5C9.1001 6.67157 8.42852 6 7.6001 6ZM5.1001 7.5C5.1001 6.11929 6.21939 5 7.6001 5C8.98081 5 10.1001 6.11929 10.1001 7.5C10.1001 8.88071 8.98081 10 7.6001 10C6.21939 10 5.1001 8.88071 5.1001 7.5Z" fill="#455065"/>
</g>
</g>
</svg>
